X:215
T:The Half 
R:reel
C:Bruce Osborne - Mar. 2005
Z:abc by bosborne@kos.net
M:2/4
L:1/8
K:Gmaj
G/A/|B/d/d/B/ c/A/F/A/|GB/G/ D/G/B/G/|B/d/d/B/ c/A/F/A/|G/B/A/F/ G/F/E/D/|\
B/d/d/B/ c/A/F/A/|GB/G/ D/G/B/G/|B/d/d/B/ c/A/F/A/|G/B/A/F/ G:|
|:B/c/|d/B/G/B/ c/A/F/A/|G/F/G/A/ B/G/D/B,/|C/D/E/C/ B,/D/G/B/|A/G/A/B/ AB/c/|\
d/B/G/B/ c/A/F/A/|G/F/G/A/ B/G/D/B,/|C/D/E/C/ B,/D/G/B/|c/A/F/A/ G:|
